Texture2D tex0: PREVIOUS;

SamplerState s0 <string uiname="Sampler";> {Filter=MIN_MAG_MIP_LINEAR;AddressU=CLAMP;AddressV=CLAMP;};
float2 R:TARGETSIZE;

float4 pMIPS(float4 PosWVP:SV_POSITION,float2 x:TEXCOORD0):SV_Target{
	return tex0.SampleLevel(s0,x,0);
}

technique10 Mix{
	pass P0 <bool mips=true;>{SetPixelShader(CompileShader(ps_4_0,pMIPS()));}
}
